client/src/assets/svg/listIcon.svg

<svg width="32" height="32" ><path fill-rule="evenodd" d="M4 2h20v21h5v7H11c-3.86599 0-7-3.134-7-7V2zm23 23v3c-1.6569 0-3-1.3431-3-3h3zm-4.0004 3C22.3719 27.1643 22 26.1256 22 25V4H6v19c0 2.7614 2.23858 5 5 5h11.9996zM8 23.5h11v-1H8v1zm11.5-13c0 .9091-.2776 1.6937-.6787 2.2284-.4008.5345-.8782.7716-1.3213.7716-.4431 0-.9205-.2371-1.3213-.7716-.4011-.5347-.6787-1.3193-.6787-2.2284 0-.90912.2776-1.69369.6787-2.22843C16.5795 7.73714 17.0569 7.5 17.5 7.5c.4431 0 .9205.23714 1.3213.77157.4011.53474.6787 1.31931.6787 2.22843zM18 14.4447c1.4189-.3174 2.5-1.9627 2.5-3.9447 0-2.20914-1.3431-4-3-4s-3 1.79086-3 4c0 1.982 1.0811 3.6273 2.5 3.9447V19.5h1v-5.0553zM9.50039 7.49937l.26166-.42519.00113.0007.00141.00087.00363.00227.01049.00667c.00839.00539.01958.01268.03336.02192.02755.01846.06552.04472.11241.07908.09372.06871.22332.16996.37662.30634.3065.27267.7089.68671 1.1094 1.26266C12.2148 9.91137 13 11.7056 13 14.2826v.5h-3V19.5H9V6.60522l.76204.46895c-.00028-.00012-.0024.00392-.26165.4252zm2.48871 6.28323H10V8.59453c.1841.19662.3865.43911.5895.73106.6454.92811 1.3072 2.36971 1.3996 4.45701z" clip-rule="evenodd"/></svg>

<svg width="32" height="32" viewBox="0 0 32 32" fill="none" xmlns="http://www.w3.org/2000/svg">
<path fill-rule="evenodd" clip-rule="evenodd" d="M4 2H24V23H29V30H27H24.2857H11C7.13401 30 4 26.866 4 23V2ZM27 25V28C25.3431 28 24 26.6569 24 25H27ZM22.9996 28C22.3719 27.1643 22 26.1256 22 25V4H6V23C6 25.7614 8.23858 28 11 28H22.9996ZM8 23.5H19V22.5H8V23.5ZM19.5 10.5C19.5 11.4091 19.2224 12.1937 18.8213 12.7284C18.4205 13.2629 17.9431 13.5 17.5 13.5C17.0569 13.5 16.5795 13.2629 16.1787 12.7284C15.7776 12.1937 15.5 11.4091 15.5 10.5C15.5 9.59088 15.7776 8.80631 16.1787 8.27157C16.5795 7.73714 17.0569 7.5 17.5 7.5C17.9431 7.5 18.4205 7.73714 18.8213 8.27157C19.2224 8.80631 19.5 9.59088 19.5 10.5ZM18 14.4447C19.4189 14.1273 20.5 12.482 20.5 10.5C20.5 8.29086 19.1569 6.5 17.5 6.5C15.8431 6.5 14.5 8.29086 14.5 10.5C14.5 12.482 15.5811 14.1273 17 14.4447V19.5H18V14.4447ZM9.50039 7.49937L9.76205 7.07418L9.76318 7.07488L9.76459 7.07575L9.76822 7.07802L9.77871 7.08469C9.7871 7.09008 9.79829 7.09737 9.81207 7.10661C9.83962 7.12507 9.87759 7.15133 9.92448 7.18569C10.0182 7.2544 10.1478 7.35565 10.3011 7.49203C10.6076 7.7647 11.01 8.17874 11.4105 8.75469C12.2148 9.91137 13 11.7056 13 14.2826V14.7826H10V19.5H9V6.60522L9.76204 7.07417C9.76176 7.07405 9.75964 7.07809 9.50039 7.49937ZM11.9891 13.7826H10V8.59453C10.1841 8.79115 10.3865 9.03364 10.5895 9.32559C11.2349 10.2537 11.8967 11.6953 11.9891 13.7826Z" fill="white"/>
</svg>
